storage/app/icons/phosphoricons/duotone/text-indent-duotone.svg

<svg xmlns="http://www.w3.org/2000/svg" fill="currentColor" viewBox="0 0 256 256"><path d="M216 64v128H40V64Z" opacity=".2"/><path d="M224 128a8 8 0 0 1-8 8H112a8 8 0 0 1 0-16h104a8 8 0 0 1 8 8M112 72h104a8 8 0 0 0 0-16H112a8 8 0 0 0 0 16m104 112H40a8 8 0 0 0 0 16h176a8 8 0 0 0 0-16M34.34 141.66a8 8 0 0 0 11.32 0l40-40a8 8 0 0 0 0-11.32l-40-40a8 8 0 0 0-11.32 11.32L68.69 96l-34.35 34.34a8 8 0 0 0 0 11.32"/></svg>

<svg xmlns="http://www.w3.org/2000/svg" viewBox="0 0 256 256" fill="currentColor"><path d="M216,64V192H40V64Z" opacity="0.2"/><path d="M224,128a8,8,0,0,1-8,8H112a8,8,0,0,1,0-16H216A8,8,0,0,1,224,128ZM112,72H216a8,8,0,0,0,0-16H112a8,8,0,0,0,0,16ZM216,184H40a8,8,0,0,0,0,16H216a8,8,0,0,0,0-16ZM34.34,141.66a8,8,0,0,0,11.32,0l40-40a8,8,0,0,0,0-11.32l-40-40A8,8,0,0,0,34.34,61.66L68.69,96,34.34,130.34A8,8,0,0,0,34.34,141.66Z"/></svg>
